icons/svg/poi/hazard_flood.svg

<?xml version="1.0" encoding="UTF-8" standalone="no"?>
<!-- Created with Inkscape (http://www.inkscape.org/) -->

<svg
   xmlns:dc="http://purl.org/dc/elements/1.1/"
   xmlns:cc="http://creativecommons.org/ns#"
   xmlns:rdf="http://www.w3.org/1999/02/22-rdf-syntax-ns#"
   xmlns:svg="http://www.w3.org/2000/svg"
   xmlns="http://www.w3.org/2000/svg"
   xmlns:sodipodi="http://sodipodi.sourceforge.net/DTD/sodipodi-0.dtd"
   xmlns:inkscape="http://www.inkscape.org/namespaces/inkscape"
   version="1.0"
   width="580"
   height="580"
   id="svg2"
   sodipodi:version="0.32"
   inkscape:version="0.91 r13725"
   sodipodi:docname="hazard_flood.svg"
   inkscape:output_extension="org.inkscape.output.svg.inkscape">
  <metadata
     id="metadata10">
    <rdf:RDF>
      <cc:Work
         rdf:about="">
        <dc:format>image/svg+xml</dc:format>
        <dc:type
           rdf:resource="http://purl.org/dc/dcmitype/StillImage" />
        <cc:license
           rdf:resource="http://web.resource.org/cc/PublicDomain" />
        <dc:language>en</dc:language>
        <dc:title />
      </cc:Work>
    </rdf:RDF>
  </metadata>
  <sodipodi:namedview
     inkscape:window-height="1006"
     inkscape:window-width="1920"
     inkscape:pageshadow="2"
     inkscape:pageopacity="0.0"
     guidetolerance="10.0"
     gridtolerance="10.0"
     objecttolerance="10.0"
     borderopacity="1.0"
     bordercolor="#666666"
     pagecolor="#ffffff"
     id="base"
     showgrid="false"
     inkscape:zoom="0.70710678"
     inkscape:cx="216.38434"
     inkscape:cy="234.89698"
     inkscape:window-x="1920"
     inkscape:window-y="0"
     inkscape:current-layer="svg2"
     showguides="true"
     inkscape:guide-bbox="true"
     inkscape:window-maximized="1" />
  <defs
     id="defs4">
    <inkscape:perspective
       sodipodi:type="inkscape:persp3d"
       inkscape:vp_x="0 : 290 : 1"
       inkscape:vp_y="0 : 1000 : 0"
       inkscape:vp_z="580 : 290 : 1"
       inkscape:persp3d-origin="290 : 193.33333 : 1"
       id="perspective12" />
    <style
       type="text/css"
       id="style6">
   
    .fil0 {fill:#EF7900}
   
  </style>
    <inkscape:perspective
       id="perspective6807"
       inkscape:persp3d-origin="29.116032 : 19.410688 : 1"
       inkscape:vp_z="58.232063 : 29.116032 : 1"
       inkscape:vp_y="0 : 1000 : 0"
       inkscape:vp_x="0 : 29.116032 : 1"
       sodipodi:type="inkscape:persp3d" />
    <inkscape:perspective
       id="perspective6954"
       inkscape:persp3d-origin="290 : 193.33333 : 1"
       inkscape:vp_z="580 : 290 : 1"
       inkscape:vp_y="0 : 1000 : 0"
       inkscape:vp_x="0 : 290 : 1"
       sodipodi:type="inkscape:persp3d" />
    <inkscape:perspective
       id="perspective2541"
       inkscape:persp3d-origin="240 : 160 : 1"
       inkscape:vp_z="480 : 240 : 1"
       inkscape:vp_y="0 : 1000 : 0"
       inkscape:vp_x="0 : 240 : 1"
       sodipodi:type="inkscape:persp3d" />
    <inkscape:perspective
       id="perspective2750"
       inkscape:persp3d-origin="215 : 143.33333 : 1"
       inkscape:vp_z="430 : 215 : 1"
       inkscape:vp_y="0 : 1000 : 0"
       inkscape:vp_x="0 : 215 : 1"
       sodipodi:type="inkscape:persp3d" />
    <inkscape:perspective
       id="perspective2830"
       inkscape:persp3d-origin="0.5 : 0.33333333 : 1"
       inkscape:vp_z="1 : 0.5 : 1"
       inkscape:vp_y="0 : 1000 : 0"
       inkscape:vp_x="0 : 0.5 : 1"
       sodipodi:type="inkscape:persp3d" />
  </defs>
  <g
     id="g1327">
    <path
       d="M 66.275,1.768 C 24.94,1.768 1.704,23.139 1.704,66.804 L 1.704,516.927 C 1.704,557.771 22.598,579.156 63.896,579.156 L 515.92,579.156 C 557.227,579.156 578.149,558.84 578.149,516.927 L 578.149,66.804 C 578.149,24.203 557.227,1.768 514.627,1.768 C 514.624,1.768 66.133,1.625 66.275,1.768 z"
       style="fill:#111111;stroke:#eeeeee;stroke-width:3.40799999"
       id="path1329" />
  </g>
  <path
     style="color:#000000;font-style:normal;font-variant:normal;font-weight:normal;font-stretch:normal;font-size:medium;line-height:normal;font-family:sans-serif;text-indent:0;text-align:start;text-decoration:none;text-decoration-line:none;text-decoration-style:solid;text-decoration-color:#000000;letter-spacing:normal;word-spacing:normal;text-transform:none;direction:ltr;block-progression:tb;writing-mode:lr-tb;baseline-shift:baseline;text-anchor:start;white-space:normal;clip-rule:nonzero;display:inline;overflow:visible;visibility:visible;opacity:1;isolation:auto;mix-blend-mode:normal;color-interpolation:sRGB;color-interpolation-filters:linearRGB;solid-color:#000000;solid-opacity:1;fill:#ffffff;fill-opacity:1;fill-rule:nonzero;stroke:none;stroke-width:15.54772663;stroke-linecap:round;stroke-linejoin:round;stroke-miterlimit:10;stroke-dasharray:none;stroke-dashoffset:0;stroke-opacity:1;color-rendering:auto;image-rendering:auto;shape-rendering:auto;text-rendering:auto;enable-background:accumulate"
     d="m 290.01562,232.39844 a 7.7746407,7.7746407 0 0 0 -5.0371,1.83789 l -91.62696,77.51562 a 7.7746407,7.7746407 0 1 0 10.04102,11.8711 L 290,250.35352 l 86.60742,73.26953 a 7.7746407,7.7746407 0 1 0 10.04102,-11.8711 l -91.62696,-77.51562 a 7.7746407,7.7746407 0 0 0 -5.00586,-1.83789 z"
     id="polyline3"
     inkscape:connector-curvature="0" />
  <path
     inkscape:connector-curvature="0"
     d="m 289.99998,266.89662 -76.35659,62.24417 0,63.74419 c 0,8.39922 6.61665,8.11831 15.01588,8.11831 l 30.54261,0 c 0,-18.32559 0.25546,-68.83705 0.25546,-68.83705 l 61.08527,0 c 0,0 -0.25546,50.51146 -0.25546,68.83705 l 30.54265,0 c 8.39921,0 15.52676,0.28091 15.52676,-8.11831 l 0,-63.74419 z"
     id="path5"
     sodipodi:nodetypes="ccssccccsscc"
     style="fill:#ffffff;fill-opacity:1" />
  <path
     style="fill:#ffffff;fill-opacity:1"
     d="m 191.87439,364.83605 c -12.65985,9.1557 -30.93707,11.76035 -42.19025,11.76035 -0.18228,0 -0.33498,-7e-5 -0.51451,0 l -12.86288,22.34467 c 3.98333,0.13666 8.07858,1.24954 13.37739,1.24954 23.91303,0 33.75038,-5.22059 42.19025,-11.76035 8.46982,6.12542 19.39125,9.28526 29.10687,10.73132 l 0,-23.52071 c -9.71562,-1.44605 -20.63705,-4.67942 -29.10687,-10.80482 z m 199.70544,0.36751 c -12.65983,9.15569 -30.93708,11.76035 -42.19025,11.76035 1.61799,9.82074 -2.6886,7.87782 0,23.5942 11.25317,0 29.53042,-2.60463 42.19025,-11.76035 12.65985,9.15572 31.01058,11.76035 42.26375,11.76035 4.70443,0 8.35378,-0.98695 11.90735,-2.05806 l -12.42186,-21.53614 c -11.28933,-0.0731 -29.26787,-2.73374 -41.74924,-11.76035 z"
     id="path3"
     inkscape:connector-curvature="0" />
  <path
     style="fill:#ffffff;fill-opacity:1"
     d="m 163.09995,419.39047 c -12.80062,8.95717 -31.33526,11.57725 -42.71356,11.57725 -0.50779,0 -0.95203,9.1e-4 -1.43815,0 l -12.51207,21.71631 c 4.17313,0.054 8.38693,1.29436 13.95022,1.29436 24.17887,0 34.17981,-5.10737 42.71356,-11.50533 12.80057,8.95717 31.26336,11.50533 42.64164,11.50533 11.37828,0 29.84106,-2.54816 42.64164,-11.50533 12.80057,8.95717 31.33524,11.50533 42.71354,11.50533 11.3783,0 29.84109,-2.54816 42.64164,-11.50533 12.8006,8.95717 31.26333,11.50533 42.64164,11.50533 11.37825,0 29.91299,-2.54816 42.71354,-11.50533 12.80057,8.95717 31.26338,11.50533 42.64164,11.50533 5.37216,0 9.48548,-1.16843 13.51878,-2.37297 l -11.9368,-20.7096 c -0.5153,0.0235 -1.04227,0.0718 -1.58198,0.0718 -11.37826,0 -29.84107,-2.62009 -42.64164,-11.57724 -12.80055,8.95715 -31.33529,11.57724 -42.71354,11.57724 -11.37831,0 -29.84104,-2.62009 -42.64164,-11.57724 -12.80055,8.95715 -31.26334,11.57724 -42.64164,11.57724 -11.3783,0 -29.91297,-2.62009 -42.71354,-11.57724 -12.80058,8.95715 -31.26336,11.57724 -42.64164,11.57724 -11.37828,0 -29.84107,-2.62009 -42.64164,-11.57724 z"
     id="path3-8"
     inkscape:connector-curvature="0" />
  <path
     inkscape:connector-curvature="0"
     style="fill:#ffffff;fill-opacity:1"
     d="m 289.80229,368.33715 c -13.08433,9.15569 -32.02981,11.83386 -43.6603,11.83386 -0.51905,0 -12.89544,-0.90226 -13.39236,-0.90319 l -30.85347,14.5204 c 12.12352,8.63572 38.55923,9.90348 44.24583,9.90348 24.7148,0 34.93741,-5.22058 43.6603,-11.76034 13.0843,9.15571 31.95632,11.76034 43.58679,11.76034 65.8693,-4.25084 56.5575,-23.90469 0,-23.52081 -11.63047,0 -30.50249,-2.67816 -43.58679,-11.83385 z"
     id="path3-8-6"
     sodipodi:nodetypes="csccsccccc" />
  <path
     inkscape:connector-curvature="0"
     style="fill:#ffffff;fill-opacity:1;fill-rule:evenodd;stroke:none"
     d="m 292.5625,39.988278 a 56.357442,56.358974 0 0 0 -5.67383,0.01563 56.357442,56.358974 0 0 0 -45.80664,28.117189 L 26.300781,440.04102 a 56.357442,56.358974 0 0 0 48.753907,84.51757 l 429.781252,0.32813 a 56.357442,56.358974 0 0 0 48.86328,-84.51758 l -215,-372.248048 A 56.357442,56.358974 0 0 0 292.5625,39.988278 Z m 0.0566,46.441408 c 8.20067,0.05801 17.57617,18.167974 17.57617,18.167974 l 197.82422,342.67578 c 0,0 7.43371,15.49359 3.20899,23.08398 -4.22471,7.59039 -16.38672,8.02344 -16.38672,8.02344 L 94.367188,477.96484 c 0,0 -15.29513,0.17409 -19.5,-6.9414 -4.20487,-7.11549 0.673828,-20.83985 0.673828,-20.83985 L 275.74219,103.39062 c 0,0 8.67628,-17.018947 16.87695,-16.960934 z"
     id="path2990" />
</svg>

<svg width="580" height="580" viewBox="0 0 580 580" fill="none" xmlns="http://www.w3.org/2000/svg">
<g clip-path="url(#clip0)">
<path d="M66.2751 1.76815C24.9401 1.76815 1.7041 23.1391 1.7041 66.8041V516.927C1.7041 557.771 22.5981 579.156 63.8961 579.156H515.92C557.227 579.156 578.149 558.84 578.149 516.927V66.8041C578.149 24.2031 557.227 1.76815 514.627 1.76815C514.624 1.76815 66.1331 1.62515 66.2751 1.76815Z" fill="#111111" stroke="#EEEEEE" stroke-width="3.408"/>
<path d="M290.016 232.398C288.172 232.394 286.386 233.046 284.978 234.236L193.351 311.752C192.558 312.407 191.902 313.213 191.423 314.123C190.943 315.033 190.649 316.029 190.557 317.054C190.465 318.079 190.578 319.112 190.888 320.093C191.198 321.074 191.7 321.983 192.365 322.769C193.029 323.554 193.843 324.2 194.759 324.669C195.674 325.138 196.674 325.42 197.7 325.499C198.726 325.579 199.757 325.454 200.734 325.132C201.712 324.81 202.615 324.297 203.393 323.623L290 250.354L376.607 323.623C377.385 324.297 378.288 324.81 379.265 325.132C380.243 325.454 381.274 325.579 382.3 325.499C383.326 325.42 384.325 325.138 385.241 324.669C386.157 324.2 386.971 323.554 387.635 322.769C388.3 321.983 388.802 321.074 389.112 320.093C389.422 319.112 389.535 318.079 389.443 317.054C389.351 316.029 389.057 315.033 388.577 314.123C388.097 313.213 387.442 312.407 386.648 311.752L295.021 234.236C293.622 233.053 291.849 232.402 290.016 232.398V232.398Z" fill="white"/>
<path d="M290 266.896L213.644 329.141V392.885C213.644 401.284 220.26 401.003 228.659 401.003H259.202C259.202 382.678 259.458 332.166 259.458 332.166H320.543C320.543 332.166 320.287 382.678 320.287 401.003H350.83C359.229 401.003 366.357 401.284 366.357 392.885V329.141L290 266.896Z" fill="white"/>
<path d="M191.874 364.836C179.214 373.992 160.937 376.596 149.684 376.596C149.502 376.596 149.349 376.596 149.17 376.596L136.307 398.941C140.29 399.078 144.385 400.19 149.684 400.19C173.597 400.19 183.434 394.97 191.874 388.43C200.344 394.556 211.266 397.715 220.981 399.161V375.641C211.266 374.195 200.344 370.961 191.874 364.836ZM391.58 365.203C378.92 374.359 360.643 376.964 349.389 376.964C351.007 386.785 346.701 384.842 349.389 400.558C360.643 400.558 378.92 397.953 391.58 388.798C404.24 397.953 422.59 400.558 433.843 400.558C438.548 400.558 442.197 399.571 445.751 398.5L433.329 376.964C422.04 376.891 404.061 374.23 391.58 365.203V365.203Z" fill="white"/>
<path d="M163.1 419.391C150.299 428.348 131.765 430.968 120.386 430.968C119.878 430.968 119.434 430.969 118.948 430.968L106.436 452.684C110.609 452.738 114.823 453.979 120.386 453.979C144.565 453.979 154.566 448.871 163.1 442.473C175.9 451.43 194.363 453.979 205.741 453.979C217.12 453.979 235.583 451.43 248.383 442.473C261.184 451.43 279.718 453.979 291.097 453.979C302.475 453.979 320.938 451.43 333.738 442.473C346.539 451.43 365.002 453.979 376.38 453.979C387.758 453.979 406.293 451.43 419.093 442.473C431.894 451.43 450.357 453.979 461.735 453.979C467.107 453.979 471.221 452.81 475.254 451.606L463.317 430.896C462.802 430.92 462.275 430.968 461.735 430.968C450.357 430.968 431.894 428.348 419.093 419.391C406.293 428.348 387.758 430.968 376.38 430.968C365.002 430.968 346.539 428.348 333.738 419.391C320.938 428.348 302.475 430.968 291.097 430.968C279.718 430.968 261.184 428.348 248.383 419.391C235.583 428.348 217.12 430.968 205.741 430.968C194.363 430.968 175.9 428.348 163.1 419.391V419.391Z" fill="white"/>
<path d="M289.802 368.337C276.718 377.493 257.772 380.171 246.142 380.171C245.623 380.171 233.246 379.269 232.749 379.268L201.896 393.788C214.02 402.424 240.455 403.692 246.142 403.692C270.857 403.692 281.079 398.471 289.802 391.931C302.886 401.087 321.758 403.692 333.389 403.692C399.258 399.441 389.946 379.787 333.389 380.171C321.758 380.171 302.886 377.493 289.802 368.337V368.337Z" fill="white"/>
<path fill-rule="evenodd" clip-rule="evenodd" d="M292.562 39.9882C290.672 39.8981 288.778 39.9033 286.889 40.0038C277.516 40.5052 268.417 43.3397 260.418 48.2499C252.418 53.1601 245.772 59.9905 241.082 68.121L26.3006 440.041C21.3617 448.604 18.7619 458.316 18.7622 468.201C18.7625 478.087 21.3629 487.798 26.3024 496.361C31.2419 504.924 38.3468 512.037 46.9039 516.986C55.461 521.936 65.1693 524.547 75.0545 524.558L504.836 524.887C514.73 524.894 524.453 522.297 533.025 517.356C541.597 512.414 548.718 505.303 553.67 496.737C558.622 488.171 561.232 478.452 561.237 468.557C561.243 458.662 558.643 448.94 553.699 440.369L338.699 68.121C333.981 59.9422 327.284 53.0799 319.222 48.1643C311.161 43.2486 301.994 40.4372 292.562 39.9882V39.9882ZM292.619 86.4296C300.82 86.4876 310.195 104.598 310.195 104.598L508.019 447.273C508.019 447.273 515.453 462.767 511.228 470.357C507.004 477.948 494.842 478.381 494.842 478.381L94.3671 477.965C94.3671 477.965 79.0719 478.139 74.867 471.023C70.6622 463.908 75.5409 450.183 75.5409 450.183L275.742 103.391C275.742 103.391 284.418 86.3716 292.619 86.4296H292.619Z" fill="white"/>
</g>
<defs>
<clipPath id="clip0">
<path d="M0 0H580V580H0V0Z" fill="white"/>
</clipPath>
</defs>
</svg>
